X: 4841
T: Brace Bridge
R: hornpipe
M: 4/4
K: Fmajor
A=B|:c2cd cAFA|d2d^c defd|c2cd cAFA|dcAFG2AB|
c2cd cAFA|d2d^c defd|AGGA GDDG|1 BAGEF2AB:|2 BAGEF2de||
|:fedcd2A2|d^cde fefg|agab agfe|gfgag2fg|
agfe gfed|bfdB AGFE|DGGA GDDG|1 BAGEF2de:|2 BAGEF2||

